X: 40292
T: Tolka, The
R: polka
M: 2/4
K: Adorian
|:AB cg|de cA|B/c/B/A/ Gd|AB GE|
AB cg|de cA|B/c/B/A/ Gd|1 BA e/d/c/B/:|2 BA A2||
|:de fa|ga fd|g/f/e/d/ cd/c/|B/A/G c/B/A/G/|
AB cg|de cA|B/c/B/A/ Gd|BA A2:|
M:5/8
e>fg fd|e>fg fd|f/g/f/e/ dc Bd|
dc/B/ cg|de cA|B/c/B/A/ Gd|1 BA A2:|2 BA e/d/cB/||
AB cg|de cA|B/c/B/A/ Gd|AB Gd|
dc/B/ cg|de cA|B/c/B/A/ Gd|1 BA e/d/c/B/:|2 BA A2||
de fa|ga fd|g/f/e/d/ cd/c/|B/A/G Bd|
dc/B/ cg|de cA|B/c/B/A/ Gd|BA A2:|
M:5/8
e>fg fd|e>fg fd|f/g/f/e/ dc Bd|
dc/B/ cg|de cA|B/c/B/A/ Gd|1 BA A2:|2 BA e/d/c/B/||

